assets/icons/uEA1F-media.svg

<svg xmlns="http://www.w3.org/2000/svg" width="543.185" height="543.185" viewBox="0 0 543.185 543.185"><path d="M534.644 1.79H143.907c-4.72 0-8.54 3.828-8.54 8.544v34.132H72.005c-2.458 0-4.807 1.064-6.427 2.92-1.62 1.86-2.353 4.32-2.036 6.762l3.32 24.52H8.54c-2.68 0-5.22 1.265-6.836 3.412C.094 84.226-.41 87.005.344 89.6L130.33 535.23c1.087 3.738 4.493 6.162 8.21 6.162h396.1c4.715 0 8.545-3.81 8.545-8.548V10.34c0-4.722-3.83-8.55-8.54-8.55zM135.368 61.555v395.79L81.794 61.555h53.574zM69.17 95.752l42.646 314.995L19.928 95.752H69.17zM526.1 524.306H152.448V18.88H526.11v505.426h-.01zM301.903 86.356H166.08V47.91h135.817l.005 38.446zm211.418 0H377.5V47.91h135.815l.005 38.446zm-202.65-19.22c0-15.796 12.81-28.616 28.61-28.616 15.8 0 28.62 12.815 28.62 28.616 0 15.805-12.82 28.616-28.62 28.616s-28.6-12.815-28.6-28.616zM493.18 275.44H377.5V145.587h115.678l.004 129.85zM322.188 164.67H179.965v-14.24h142.223v14.242zm-142.223 40.424h142.223v14.244H179.965v-14.244zm1.6 55.91H323.79v14.242H181.568v-14.242zm-1.6 56.32h313.217v14.238H179.965v-14.237zm0 56.232h313.217v14.237H179.965v-14.237zm0 55.52h313.217v14.247H179.965v-14.247z"/></svg>

<?xml version="1.0" encoding="iso-8859-1"?>
<!-- Generator: Adobe Illustrator 16.0.0, SVG Export Plug-In . SVG Version: 6.00 Build 0)  -->
<!DOCTYPE svg PUBLIC "-//W3C//DTD SVG 1.1//EN" "http://www.w3.org/Graphics/SVG/1.1/DTD/svg11.dtd">
<svg version="1.1" id="Capa_1" xmlns="http://www.w3.org/2000/svg" xmlns:xlink="http://www.w3.org/1999/xlink" x="0px" y="0px"
	 width="543.185px" height="543.185px" viewBox="0 0 543.185 543.185" style="enable-background:new 0 0 543.185 543.185;"
	 xml:space="preserve">
<g>
	<path d="M534.644,1.79H143.907c-4.72,0-8.54,3.828-8.54,8.544v34.132H72.005c-2.458,0-4.807,1.064-6.427,2.919
		c-1.62,1.861-2.353,4.32-2.036,6.763l3.319,24.521H8.541c-2.679,0-5.22,1.264-6.835,3.411c-1.613,2.146-2.117,4.925-1.362,7.519
		l129.987,445.633c1.086,3.738,4.492,6.162,8.209,6.162c0.79,0,396.1,0,396.1,0c4.715,0,8.545-3.81,8.545-8.548V10.339
		C543.185,5.618,539.354,1.79,534.644,1.79z M135.368,61.555v395.79L81.794,61.555H135.368L135.368,61.555z M69.17,95.752
		l42.646,314.995L19.928,95.752H69.17z M526.101,524.306H152.447V18.881h373.662v505.425H526.101z M301.902,86.356H166.079V47.911
		h135.818L301.902,86.356L301.902,86.356z M513.32,86.356H377.499V47.911h135.816L513.32,86.356L513.32,86.356z M310.669,67.136
		c0-15.796,12.81-28.616,28.604-28.616c15.802,0,28.622,12.815,28.622,28.616c0,15.805-12.826,28.616-28.622,28.616
		C323.474,95.752,310.669,82.937,310.669,67.136z M493.182,275.439H377.499V145.588h115.679L493.182,275.439L493.182,275.439z
		 M322.188,164.672H179.965v-14.243h142.223V164.672z M179.965,205.096h142.223v14.244H179.965V205.096z M181.566,261.006h142.225
		v14.242H181.566V261.006z M179.965,317.327h313.217v14.237H179.965V317.327z M179.965,373.558h313.217v14.237H179.965V373.558z
		 M179.965,429.078h313.217v14.247H179.965V429.078z"/>
</g>
<g>
</g>
<g>
</g>
<g>
</g>
<g>
</g>
<g>
</g>
<g>
</g>
<g>
</g>
<g>
</g>
<g>
</g>
<g>
</g>
<g>
</g>
<g>
</g>
<g>
</g>
<g>
</g>
<g>
</g>
</svg>
